%
(1001-Back)
(T1 D=0.25 CR=0 - ZMIN=0 - flat end mill)
N10 G90 G94
N15 G17
N20 G20
(When using Fusion for Personal Use, the feedrate of rapid)
(moves is reduced to match the feedrate of cutting moves,)
(which can increase machining time. Unrestricted rapid moves)
(are available with a Fusion Subscription.)
N25 G28 G91 Z0
N30 G90

(2D Contour2)
N35 T1 M6
N40 S5000 M3
N45 G54
N50 G0 X1.025 Y-0.225
N55 G43 Z2.2 H1
N60 G1 Z0.7 F39.37
N65 Z0.5394 F13.12
N70 Z0.4
N75 G19 G3 Y-0.2 Z0.375 J0.025 F39.37
N80 G1 Y-0.175
N85 G17 G3 X1 Y-0.15 I-0.025
N90 G2 X-0.15 Y1 J1.15
N95 G1 Y18
N100 G2 X1 Y19.15 I1.15
N105 G1 X2.5
N110 G2 X2.65 Y19 J-0.15
N115 G1 Y9.65
N120 X2.85
N125 Y19
N130 G3 X2.825 Y19.025 I-0.025
N135 G1 X2.8
N140 G18 G3 X2.775 Z0.4 K0.025
N145 G1 Z0.7
N150 G0 X1.025 Y-0.2
N155 G1 Z0.5394 F13.12
N160 Z0.4
N165 G19 G3 Y-0.175 Z0.375 J0.025 F39.37
N170 G1 Y-0.15
N175 G17 G3 X1 Y-0.125 I-0.025
N180 G2 X-0.125 Y1 J1.125
N185 G1 Y18
N190 G2 X1 Y19.125 I1.125
N195 G1 X2.5
N200 G2 X2.625 Y19 J-0.125
N205 G1 Y9.625
N210 X2.875
N215 Y19
N220 G3 X2.85 Y19.025 I-0.025
N225 G1 X2.825
N230 G18 G3 X2.8 Z0.4 K0.025
N235 G1 Z0.7
N240 G0 X1.025 Y-0.225
N245 G1 Z0.4144 F13.12
N250 Z0.275
N255 G19 G3 Y-0.2 Z0.25 J0.025 F39.37
N260 G1 Y-0.175
N265 G17 G3 X1 Y-0.15 I-0.025
N270 G2 X-0.15 Y1 J1.15
N275 G1 Y18
N280 G2 X1 Y19.15 I1.15
N285 G1 X2.5
N290 G2 X2.65 Y19 J-0.15
N295 G1 Y9.65
N300 X2.85
N305 Y19
N310 G3 X2.825 Y19.025 I-0.025
N315 G1 X2.8
N320 G18 G3 X2.775 Z0.275 K0.025
N325 G1 Z0.7
N330 G0 X1.025 Y-0.2
N335 G1 Z0.4144 F13.12
N340 Z0.275
N345 G19 G3 Y-0.175 Z0.25 J0.025 F39.37
N350 G1 Y-0.15
N355 G17 G3 X1 Y-0.125 I-0.025
N360 G2 X-0.125 Y1 J1.125
N365 G1 Y18
N370 G2 X1 Y19.125 I1.125
N375 G1 X2.5
N380 G2 X2.625 Y19 J-0.125
N385 G1 Y9.625
N390 X2.875
N395 Y19
N400 G3 X2.85 Y19.025 I-0.025
N405 G1 X2.825
N410 G18 G3 X2.8 Z0.275 K0.025
N415 G1 Z0.7
N420 G0 X1.025 Y-0.225
N425 G1 Z0.2894 F13.12
N430 Z0.15
N435 G19 G3 Y-0.2 Z0.125 J0.025 F39.37
N440 G1 Y-0.175
N445 G17 G3 X1 Y-0.15 I-0.025
N450 G2 X-0.15 Y1 J1.15
N455 G1 Y18
N460 G2 X1 Y19.15 I1.15
N465 G1 X2.5
N470 G2 X2.65 Y19 J-0.15
N475 G1 Y9.65
N480 X2.85
N485 Y19
N490 G3 X2.825 Y19.025 I-0.025
N495 G1 X2.8
N500 G18 G3 X2.775 Z0.15 K0.025
N505 G1 Z0.7
N510 G0 X1.025 Y-0.2
N515 G1 Z0.2894 F13.12
N520 Z0.15
N525 G19 G3 Y-0.175 Z0.125 J0.025 F39.37
N530 G1 Y-0.15
N535 G17 G3 X1 Y-0.125 I-0.025
N540 G2 X-0.125 Y1 J1.125
N545 G1 Y18
N550 G2 X1 Y19.125 I1.125
N555 G1 X2.5
N560 G2 X2.625 Y19 J-0.125
N565 G1 Y9.625
N570 X2.875
N575 Y19
N580 G3 X2.85 Y19.025 I-0.025
N585 G1 X2.825
N590 G18 G3 X2.8 Z0.15 K0.025
N595 G1 Z0.7
N600 G0 X1.025 Y-0.225
N605 G1 Z0.1644 F13.12
N610 Z0.025
N615 G19 G3 Y-0.2 Z0 J0.025 F39.37
N620 G1 Y-0.175
N625 G17 G3 X1 Y-0.15 I-0.025
N630 G2 X-0.15 Y1 J1.15
N635 G1 Y18
N640 G2 X1 Y19.15 I1.15
N645 G1 X2.5
N650 G2 X2.65 Y19 J-0.15
N655 G1 Y9.65
N660 X2.85
N665 Y19
N670 G3 X2.825 Y19.025 I-0.025
N675 G1 X2.8
N680 G18 G3 X2.775 Z0.025 K0.025
N685 G1 Z0.7
N690 G0 X1.025 Y-0.2
N695 G1 Z0.1644 F13.12
N700 Z0.025
N705 G19 G3 Y-0.175 Z0 J0.025 F39.37
N710 G1 Y-0.15
N715 G17 G3 X1 Y-0.125 I-0.025
N720 G2 X-0.125 Y1 J1.125
N725 G1 Y18
N730 G2 X1 Y19.125 I1.125
N735 G1 X2.5
N740 G2 X2.625 Y19 J-0.125
N745 G1 Y9.625
N750 X2.875
N755 Y19
N760 G3 X2.85 Y19.025 I-0.025
N765 G1 X2.825
N770 G18 G3 X2.8 Z0.025 K0.025
N775 G1 Z2.2
N780 G17
(When using Fusion for Personal Use, the feedrate of rapid)
(moves is reduced to match the feedrate of cutting moves,)
(which can increase machining time. Unrestricted rapid moves)
(are available with a Fusion Subscription.)

(2D Contour2 2)
N785 G0 X45.225 Y19.025
N790 G1 Z2.2 F39.37
N795 Z0.7
N800 Z0.5394 F13.12
N805 Z0.4
N810 G18 G3 X45.2 Z0.375 I-0.025 F39.37
N815 G1 X45.175
N820 G17 G3 X45.15 Y19 J-0.025
N825 G1 Y9.65
N830 X45.35
N835 Y19
N840 G2 X45.5 Y19.15 I0.15
N845 G1 X47
N850 G2 X48.15 Y18 J-1.15
N855 G1 Y1
N860 G2 X47 Y-0.15 I-1.15
N865 G3 X46.975 Y-0.175 J-0.025
N870 G1 Y-0.2
N875 G19 G2 Y-0.225 Z0.4 K0.025
N880 G1 Z0.7
N885 G0 X45.2 Y19.025
N890 G1 Z0.5394 F13.12
N895 Z0.4
N900 G18 G3 X45.175 Z0.375 I-0.025 F39.37
N905 G1 X45.15
N910 G17 G3 X45.125 Y19 J-0.025
N915 G1 Y9.625
N920 X45.375
N925 Y19
N930 G2 X45.5 Y19.125 I0.125
N935 G1 X47
N940 G2 X48.125 Y18 J-1.125
N945 G1 Y1
N950 G2 X47 Y-0.125 I-1.125
N955 G3 X46.975 Y-0.15 J-0.025
N960 G1 Y-0.175
N965 G19 G2 Y-0.2 Z0.4 K0.025
N970 G1 Z0.7
N975 G0 X45.225 Y19.025
N980 G1Z0.4144 F13.12
N985 Z0.275
N990 G18 G3 X45.2 Z0.25 I-0.025 F39.37
N995 G1 X45.175
N1000 G17 G3 X45.15 Y19 J-0.025
N1005 G1 Y9.65
N1010 X45.35
N1015 Y19
N1020 G2 X45.5 Y19.15 I0.15
N1025 G1 X47
N1030 G2 X48.15 Y18 J-1.15
N1035 G1 Y1
N1040 G2 X47 Y-0.15 I-1.15
N1045 G3 X46.975 Y-0.175 J-0.025
N1050 G1 Y-0.2
N1055 G19 G2 Y-0.225 Z0.275 K0.025
N1060 G1 Z0.7
N1065 G0 X45.2 Y19.025
N1070 G1Z0.4144 F13.12
N1075 Z0.275
N1080 G18 G3 X45.175 Z0.25 I-0.025 F39.37
N1085 G1 X45.15
N1090 G17 G3 X45.125 Y19 J-0.025
N1095 G1 Y9.625
N1100 X45.375
N1105 Y19
N1110 G2 X45.5 Y19.125 I0.125
N1115 G1 X47
N1120 G2 X48.125 Y18 J-1.125
N1125 G1 Y1
N1130 G2 X47 Y-0.125 I-1.125
N1135 G3 X46.975 Y-0.15 J-0.025
N1140 G1 Y-0.175
N1145 G19 G2 Y-0.2 Z0.275 K0.025
N1150 G1 Z0.7
N1155 G0 X45.225 Y19.025
N1160 G1 Z0.2894 F13.12
N1165 Z0.15
N1170 G18 G3 X45.2 Z0.125 I-0.025 F39.37
N1175 G1 X45.175
N1180 G17 G3 X45.15 Y19 J-0.025
N1185 G1 Y9.65
N1190 X45.35
N1195 Y19
N1200 G2 X45.5 Y19.15 I0.15
N1205 G1 X47
N1210 G2 X48.15 Y18 J-1.15
N1215 G1 Y1
N1220 G2 X47 Y-0.15 I-1.15
N1225 G3 X46.975 Y-0.175 J-0.025
N1230 G1 Y-0.2
N1235 G19 G2 Y-0.225 Z0.15 K0.025
N1240 G1 Z0.7
N1245 G0 X45.2 Y19.025
N1250 G1 Z0.2894 F13.12
N1255 Z0.15
N1260 G18 G3 X45.175 Z0.125 I-0.025 F39.37
N1265 G1 X45.15
N1270 G17 G3 X45.125 Y19 J-0.025
N1275 G1 Y9.625
N1280 X45.375
N1285 Y19
N1290 G2 X45.5 Y19.125 I0.125
N1295 G1 X47
N1300 G2 X48.125 Y18 J-1.125
N1305 G1 Y1
N1310 G2 X47 Y-0.125 I-1.125
N1315 G3 X46.975 Y-0.15 J-0.025
N1320 G1 Y-0.175
N1325 G19 G2 Y-0.2 Z0.15 K0.025
N1330 G1 Z0.7
N1335 G0 X45.225 Y19.025
N1340 G1Z0.1644 F13.12
N1345 Z0.025
N1350 G18 G3 X45.2 Z0 I-0.025 F39.37
N1355 G1 X45.175
N1360 G17 G3 X45.15 Y19 J-0.025
N1365 G1 Y9.65
N1370 X45.35
N1375 Y19
N1380 G2 X45.5 Y19.15 I0.15
N1385 G1 X47
N1390 G2 X48.15 Y18 J-1.15
N1395 G1 Y1
N1400 G2 X47 Y-0.15 I-1.15
N1405 G3 X46.975 Y-0.175 J-0.025
N1410 G1 Y-0.2
N1415 G19 G2 Y-0.225 Z0.025 K0.025
N1420 G1 Z0.7
N1425 G0 X45.2 Y19.025
N1430 G1 Z0.1644 F13.12
N1435 Z0.025
N1440 G18 G3 X45.175 Z0 I-0.025 F39.37
N1445 G1 X45.15
N1450 G17 G3 X45.125 Y19 J-0.025
N1455 G1 Y9.625
N1460 X45.375
N1465 Y19
N1470 G2 X45.5 Y19.125 I0.125
N1475 G1 X47
N1480 G2 X48.125 Y18 J-1.125
N1485 G1 Y1
N1490 G2 X47 Y-0.125 I-1.125
N1495 G3 X46.975 Y-0.15 J-0.025
N1500 G1 Y-0.175
N1505 G19 G2 Y-0.2 Z0.025 K0.025
N1510 G1 Z2.2
N1515 G17
N1520 G28 G91 Z0
N1525 G90
N1530 G28 G91 X0 Y0
N1535 G90
N1540 M30
%
