%
(1001-Side)
(T1 D=0.25 CR=0 - ZMIN=0 - flat end mill)
N10 G90 G94
N15 G17
N20 G20
(When using Fusion for Personal Use, the feedrate of rapid)
(moves is reduced to match the feedrate of cutting moves,)
(which can increase machining time. Unrestricted rapid moves)
(are available with a Fusion Subscription.)
N25 G28 G91 Z0
N30 G90

(2D Contour2)
N35 T1 M6
N40 S5000 M3
N45 G54
N48 G0 Z3
N50 G0 X31.025 Y14.275 F300
N55 G43 Z2.1969 H1
N60 G1 Z0.6969 F180
N65 Z0.5394 F60
N70 Z0.4
N75 G19 G3 Y14.3 Z0.375 J0.025 F180
N80 G1 Y14.325
N85 G17 G3 X31 Y14.35 I-0.025
N90 G1 X24.15
N95 Y14.15
N100 X31
N105 G2 X31.15 Y14 J-0.15
N110 G1 Y2.5
N115 G2 X31 Y2.35 I-0.15
N120 G1 X23.65
N125 Y2.15
N130 X31
N135 G2 X31.15 Y2 J-0.15
N140 G1 Y1
N145 G2 X30 Y-0.15 I-1.15
N150 G3 X29.975 Y-0.175 J-0.025
N155 G1 Y-0.2
N160 G19 G2 Y-0.225 Z0.4 K0.025
N165 G1 Z0.6969
N170 G0 X31.025 Y14.3
N175 G1 Z0.5394 F60
N180 Z0.4
N185 G3 Y14.325 Z0.375 J0.025 F180
N190 G1 Y14.35
N195 G17 G3 X31 Y14.375 I-0.025
N200 G1 X24.125
N205 Y14.125
N210 X31
N215 G2 X31.125 Y14 J-0.125
N220 G1 Y2.5
N225 G2 X31 Y2.375 I-0.125
N230 G1 X23.625
N235 Y2.125
N240 X31
N245 G2 X31.125 Y2 J-0.125
N250 G1 Y1
N255 G2 X30 Y-0.125 I-1.125
N260 G3 X29.975 Y-0.15 J-0.025
N265 G1 Y-0.175
N270 G19 G2 Y-0.2 Z0.4 K0.025
N275 G1 Z0.6969
N280 G0 X31.025 Y14.275
N285 G1 Z0.4144 F60
N290 Z0.275
N295 G3 Y14.3 Z0.25 J0.025 F180
N300 G1 Y14.325
N305 G17 G3 X31 Y14.35 I-0.025
N310 G1 X24.15
N315 Y14.15
N320 X31
N325 G2 X31.15 Y14 J-0.15
N330 G1 Y2.5
N335 G2 X31 Y2.35 I-0.15
N340 G1 X23.65
N345 Y2.15
N350 X31
N355 G2 X31.15 Y2 J-0.15
N360 G1 Y1
N365 G2 X30 Y-0.15 I-1.15
N370 G3 X29.975 Y-0.175 J-0.025
N375 G1 Y-0.2
N380 G19 G2 Y-0.225 Z0.275 K0.025
N385 G1 Z0.6969
N390 G0 X31.025 Y14.3
N395 G1 Z0.4144 F60
N400 Z0.275
N405 G3 Y14.325 Z0.25 J0.025 F180
N410 G1 Y14.35
N415 G17 G3 X31 Y14.375 I-0.025
N420 G1 X24.125
N425 Y14.125
N430 X31
N435 G2 X31.125 Y14 J-0.125
N440 G1 Y2.5
N445 G2 X31 Y2.375 I-0.125
N450 G1 X23.625
N455 Y2.125
N460 X31
N465 G2 X31.125 Y2 J-0.125
N470 G1 Y1
N475 G2 X30 Y-0.125 I-1.125
N480 G3 X29.975 Y-0.15 J-0.025
N485 G1 Y-0.175
N490 G19 G2 Y-0.2 Z0.275 K0.025
N495 G1 Z0.6969
N500 G0 X31.025 Y14.275
N505 G1 Z0.2894 F60
N510 Z0.15
N515 G3 Y14.3 Z0.125 J0.025 F180
N520 G1 Y14.325
N525 G17 G3 X31 Y14.35 I-0.025
N530 G1 X24.15
N535 Y14.15
N540 X31
N545 G2 X31.15 Y14 J-0.15
N550 G1 Y2.5
N555 G2 X31 Y2.35 I-0.15
N560 G1 X23.65
N565 Y2.15
N570 X31
N575 G2 X31.15 Y2 J-0.15
N580 G1 Y1
N585 G2 X30 Y-0.15 I-1.15
N590 G3 X29.975 Y-0.175 J-0.025
N595 G1 Y-0.2
N600 G19 G2 Y-0.225 Z0.15 K0.025
N605 G1 Z0.6969
N610 G0 X31.025 Y14.3
N615 G1 Z0.2894 F60
N620 Z0.15
N625 G3 Y14.325 Z0.125 J0.025 F180
N630 G1 Y14.35
N635 G17 G3 X31 Y14.375 I-0.025
N640 G1 X24.125
N645 Y14.125
N650 X31
N655 G2 X31.125 Y14 J-0.125
N660 G1 Y2.5
N665 G2 X31 Y2.375 I-0.125
N670 G1 X23.625
N675 Y2.125
N680 X31
N685 G2 X31.125 Y2 J-0.125
N690 G1 Y1
N695 G2 X30 Y-0.125 I-1.125
N700 G3 X29.975 Y-0.15 J-0.025
N705 G1 Y-0.175
N710 G19 G2 Y-0.2 Z0.15 K0.025
N715 G1 Z0.6969
N720 G0 X31.025 Y14.275
N725 G1 Z0.1644 F60
N730 Z0.025
N735 G3 Y14.3 Z0 J0.025 F180
N740 G1 Y14.325
N745 G17 G3 X31 Y14.35 I-0.025
N750 G1 X24.15
N755 Y14.15
N760 X31
N765 G2 X31.15 Y14 J-0.15
N770 G1 Y2.5
N775 G2 X31 Y2.35 I-0.15
N780 G1 X23.65
N785 Y2.15
N790 X31
N795 G2 X31.15 Y2 J-0.15
N800 G1 Y1
N805 G2 X30 Y-0.15 I-1.15
N810 G3 X29.975 Y-0.175 J-0.025
N815 G1 Y-0.2
N820 G19 G2 Y-0.225 Z0.025 K0.025
N825 G1 Z0.6969
N830 G0 X31.025 Y14.3
N835 G1 Z0.1644 F60
N840 Z0.025
N845 G3 Y14.325 Z0 J0.025 F180
N850 G1 Y14.35
N855 G17 G3 X31 Y14.375 I-0.025
N860 G1 X24.125
N865 Y14.125
N870 X31
N875 G2 X31.125 Y14 J-0.125
N880 G1 Y2.5
N885 G2 X31 Y2.375 I-0.125
N890 G1 X23.625
N895 Y2.125
N900 X31
N905 G2 X31.125 Y2 J-0.125
N910 G1 Y1
N915 G2 X30 Y-0.125 I-1.125
N920 G3 X29.975 Y-0.15 J-0.025
N925 G1 Y-0.175
N930 G19 G2 Y-0.2 Z0.025 K0.025
N935 G1 Z0.6969
N940 G0 Y24.225
N945 G1 Z0.5394 F60
N950 Z0.4
N955 G2 Y24.2 Z0.375 J-0.025 F180
N960 G1 Y24.175
N965 G17 G3 X30 Y24.15 I0.025
N970 G2 X31.15 Y23 J-1.15
N975 G3 X31.175 Y22.975 I0.025
N980 G1 X31.2
N985 G18 G2 X31.225 Z0.4 K0.025
N990 G1 Z0.6969
N995 X29.975 Y24.2
N1000 Z0.5394 F60
N1005 Z0.4
N1010 G19 G2 Y24.175 Z0.375 J-0.025 F180
N1015 G1 Y24.15
N1020 G17 G3 X30 Y24.125 I0.025
N1025 G2 X31.125 Y23 J-1.125
N1030 G3 X31.15 Y22.975 I0.025
N1035 G1 X31.175
N1040 G18 G2 X31.2 Z0.4 K0.025
N1045 G1 Z0.6969
N1050 X29.975 Y24.225
N1055 Z0.4144 F60
N1060 Z0.275
N1065 G19 G2 Y24.2 Z0.25 J-0.025 F180
N1070 G1 Y24.175
N1075 G17 G3 X30 Y24.15 I0.025
N1080 G2 X31.15 Y23 J-1.15
N1085 G3 X31.175 Y22.975 I0.025
N1090 G1 X31.2
N1095 G18 G2 X31.225 Z0.275 K0.025
N1100 G1 Z0.6969
N1105 X29.975 Y24.2
N1110 Z0.4144 F60
N1115 Z0.275
N1120 G19 G2 Y24.175 Z0.25 J-0.025 F180
N1125 G1 Y24.15
N1130 G17 G3 X30 Y24.125 I0.025
N1135 G2 X31.125 Y23 J-1.125
N1140 G3 X31.15 Y22.975 I0.025
N1145 G1 X31.175
N1150 G18 G2 X31.2 Z0.275 K0.025
N1155 G1 Z0.6969
N1160 X29.975 Y24.225
N1165 Z0.2894 F60
N1170 Z0.15
N1175 G19 G2 Y24.2 Z0.125 J-0.025 F180
N1180 G1 Y24.175
N1185 G17 G3 X30 Y24.15 I0.025
N1190 G2 X31.15 Y23 J-1.15
N1195 G3 X31.175 Y22.975 I0.025
N1200 G1 X31.2
N1205 G18 G2 X31.225 Z0.15 K0.025
N1210 G1 Z0.6969
N1215 X29.975 Y24.2
N1220 Z0.2894 F60
N1225 Z0.15
N1230 G19 G2 Y24.175 Z0.125 J-0.025 F180
N1235 G1 Y24.15
N1240 G17 G3 X30 Y24.125 I0.025
N1245 G2 X31.125 Y23 J-1.125
N1250 G3 X31.15 Y22.975 I0.025
N1255 G1 X31.175
N1260 G18 G2 X31.2 Z0.15 K0.025
N1265 G1 Z0.6969
N1270 X29.975 Y24.225
N1275 Z0.1644 F60
N1280 Z0.025
N1285 G19 G2 Y24.2 Z0 J-0.025 F180
N1290 G1 Y24.175
N1295 G17 G3 X30 Y24.15 I0.025
N1300 G2 X31.15 Y23 J-1.15
N1305 G3 X31.175 Y22.975 I0.025
N1310 G1 X31.2
N1315 G18 G2 X31.225 Z0.025 K0.025
N1320 G1 Z0.6969
N1325 X29.975 Y24.2
N1330 Z0.1644 F60
N1335 Z0.025
N1340 G19 G2 Y24.175 Z0 J-0.025 F180
N1345 G1 Y24.15
N1350 G17 G3 X30 Y24.125 I0.025
N1355 G2 X31.125 Y23 J-1.125
N1360 G3 X31.15 Y22.975 I0.025
N1365 G1 X31.175
N1370 G18 G2 X31.2 Z0.025 K0.025
N1375 G1 Z2.1969
N1380 G17
(When using Fusion for Personal Use, the feedrate of rapid)
(moves is reduced to match the feedrate of cutting moves,)
(which can increase machining time. Unrestricted rapid moves)
(are available with a Fusion Subscription.)

(2D Contour3)
N1385 G0 Z2.2
N1390 X15.5237 Y-0.0049
N1395 G1 Z0.7 F180
N1400 Z0.5394 F60
N1405 Z0.4
N1410 X15.524 Y-0.005 Z0.3961 F180
N1415 X15.5249 Y-0.0051 Z0.3923
N1420 X15.5264 Y-0.0052 Z0.3887
N1425 X15.5284 Y-0.0054 Z0.3853
N1430 X15.531 Y-0.0056 Z0.3823
N1435 X15.5339 Y-0.0059 Z0.3798
N1440 X15.5373 Y-0.0062 Z0.3777
N1445 X15.5409 Y-0.0065 Z0.3762
N1450 X15.5447 Y-0.0068 Z0.3753
N1455 X15.5486 Y-0.0072 Z0.375
N1460 X15.5735 Y-0.0094
N1465 G3 X15.6006 Y0.0133 I0.0022 J0.0249
N1470 G1 X16.3373 Y8.2861
N1475 X16.1381 Y8.3038
N1480 X15.3974 Y-0.0133
N1485 G2 X15.248 Y-0.15 I-0.1494 J0.0133
N1490 G1 X6
N1495 G2 X-0.15 Y6 J6.15
N1500 G3 X-0.175 Y6.025 I-0.025
N1505 G1 X-0.2
N1510 G18 G3 X-0.225 Z0.4 K0.025
N1515 G1 Z0.7
N1520 G0 X15.5486 Y-0.0072
N1525 G1 Z0.5394 F60
N1530 Z0.4
N1535 X15.5489 Z0.3961 F180
N1540 X15.5498 Y-0.0073 Z0.3923
N1545 X15.5513 Y-0.0074 Z0.3887
N1550 X15.5533 Y-0.0076 Z0.3853
N1555 X15.5559 Y-0.0078 Z0.3823
N1560 X15.5588 Y-0.0081 Z0.3798
N1565 X15.5622 Y-0.0084 Z0.3777
N1570 X15.5658 Y-0.0087 Z0.3762
N1575 X15.5696 Y-0.009 Z0.3753
N1580 X15.5735 Y-0.0094 Z0.375
N1585 X15.5984 Y-0.0116
N1590 G17 G3 X15.6255 Y0.0111 I0.0022 J0.0249
N1595 G1 X16.3644 Y8.3087
N1600 X16.1154 Y8.3309
N1605 X15.3725 Y-0.0111
N1610 G2 X15.248 Y-0.125 I-0.1245 J0.0111
N1615 G1 X6
N1620 G2 X-0.125 Y6 J6.125
N1625 G3 X-0.15 Y6.025 I-0.025
N1630 G1 X-0.175
N1635 G18 G3 X-0.2 Z0.4 K0.025
N1640 G1 Z0.7
N1645 G0 X15.5237 Y-0.0049
N1650 G1 Z0.4144 F60
N1655 Z0.275
N1660 X15.524 Y-0.005 Z0.2711 F180
N1665 X15.5249 Y-0.0051 Z0.2673
N1670 X15.5264 Y-0.0052 Z0.2637
N1675 X15.5284 Y-0.0054 Z0.2603
N1680 X15.531 Y-0.0056 Z0.2573
N1685 X15.5339 Y-0.0059 Z0.2548
N1690 X15.5373 Y-0.0062 Z0.2527
N1695 X15.5409 Y-0.0065 Z0.2512
N1700 X15.5447 Y-0.0068 Z0.2503
N1705 X15.5486 Y-0.0072 Z0.25
N1710 X15.5735 Y-0.0094
N1715 G17 G3 X15.6006 Y0.0133 I0.0022 J0.0249
N1720 G1 X16.3373 Y8.2861
N1725 X16.1381 Y8.3038
N1730 X15.3974 Y-0.0133
N1735 G2 X15.248 Y-0.15 I-0.1494 J0.0133
N1740 G1 X6
N1745 G2 X-0.15 Y6 J6.15
N1750 G3 X-0.175 Y6.025 I-0.025
N1755 G1 X-0.2
N1760 G18 G3 X-0.225 Z0.275 K0.025
N1765 G1 Z0.7
N1770 G0 X15.5486 Y-0.0072
N1775 G1 Z0.4144 F60
N1780 Z0.275
N1785 X15.5489 Z0.2711 F180
N1790 X15.5498 Y-0.0073 Z0.2673
N1795 X15.5513 Y-0.0074 Z0.2637
N1800 X15.5533 Y-0.0076 Z0.2603
N1805 X15.5559 Y-0.0078 Z0.2573
N1810 X15.5588 Y-0.0081 Z0.2548
N1815 X15.5622 Y-0.0084 Z0.2527
N1820 X15.5658 Y-0.0087 Z0.2512
N1825 X15.5696 Y-0.009 Z0.2503
N1830 X15.5735 Y-0.0094 Z0.25
N1835 X15.5984 Y-0.0116
N1840 G17 G3 X15.6255 Y0.0111 I0.0022 J0.0249
N1845 G1 X16.3644 Y8.3087
N1850 X16.1154 Y8.3309
N1855 X15.3725 Y-0.0111
N1860 G2 X15.248 Y-0.125 I-0.1245 J0.0111
N1865 G1 X6
N1870 G2 X-0.125 Y6 J6.125
N1875 G3 X-0.15 Y6.025 I-0.025
N1880 G1 X-0.175
N1885 G18 G3 X-0.2 Z0.275 K0.025
N1890 G1 Z0.7
N1895 G0 X15.5237 Y-0.0049
N1900 G1 Z0.2894 F60
N1905 Z0.15
N1910 X15.524 Y-0.005 Z0.1461 F180
N1915 X15.5249 Y-0.0051 Z0.1423
N1920 X15.5264 Y-0.0052 Z0.1387
N1925 X15.5284 Y-0.0054 Z0.1353
N1930 X15.531 Y-0.0056 Z0.1323
N1935 X15.5339 Y-0.0059 Z0.1298
N1940 X15.5373 Y-0.0062 Z0.1277
N1945 X15.5409 Y-0.0065 Z0.1262
N1950 X15.5447 Y-0.0068 Z0.1253
N1955 X15.5486 Y-0.0072 Z0.125
N1960 X15.5735 Y-0.0094
N1965 G17 G3 X15.6006 Y0.0133 I0.0022 J0.0249
N1970 G1 X16.3373 Y8.2861
N1975 X16.1381 Y8.3038
N1980 X15.3974 Y-0.0133
N1985 G2 X15.248 Y-0.15 I-0.1494 J0.0133
N1990 G1 X6
N1995 G2 X-0.15 Y6 J6.15
N2000 G3 X-0.175 Y6.025 I-0.025
N2005 G1 X-0.2
N2010 G18 G3 X-0.225 Z0.15 K0.025
N2015 G1 Z0.7
N2020 G0 X15.5486 Y-0.0072
N2025 G1 Z0.2894 F60
N2030 Z0.15
N2035 X15.5489 Z0.1461 F180
N2040 X15.5498 Y-0.0073 Z0.1423
N2045 X15.5513 Y-0.0074 Z0.1387
N2050 X15.5533 Y-0.0076 Z0.1353
N2055 X15.5559 Y-0.0078 Z0.1323
N2060 X15.5588 Y-0.0081 Z0.1298
N2065 X15.5622 Y-0.0084 Z0.1277
N2070 X15.5658 Y-0.0087 Z0.1262
N2075 X15.5696 Y-0.009 Z0.1253
N2080 X15.5735 Y-0.0094 Z0.125
N2085 X15.5984 Y-0.0116
N2090 G17 G3 X15.6255 Y0.0111 I0.0022 J0.0249
N2095 G1 X16.3644 Y8.3087
N2100 X16.1154 Y8.3309
N2105 X15.3725 Y-0.0111
N2110 G2 X15.248 Y-0.125 I-0.1245 J0.0111
N2115 G1 X6
N2120 G2 X-0.125 Y6 J6.125
N2125 G3 X-0.15 Y6.025 I-0.025
N2130 G1 X-0.175
N2135 G18 G3 X-0.2 Z0.15 K0.025
N2140 G1 Z0.7
N2145 G0 X15.5237 Y-0.0049
N2150 G1 Z0.1644 F60
N2155 Z0.025
N2160 X15.524 Y-0.005 Z0.0211 F180
N2165 X15.5249 Y-0.0051 Z0.0173
N2170 X15.5264 Y-0.0052 Z0.0137
N2175 X15.5284 Y-0.0054 Z0.0103
N2180 X15.531 Y-0.0056 Z0.0073
N2185 X15.5339 Y-0.0059 Z0.0048
N2190 X15.5373 Y-0.0062 Z0.0027
N2195 X15.5409 Y-0.0065 Z0.0012
N2200 X15.5447 Y-0.0068 Z0.0003
N2205 X15.5486 Y-0.0072 Z0
N2210 X15.5735 Y-0.0094
N2215 G17 G3 X15.6006 Y0.0133 I0.0022 J0.0249
N2220 G1 X16.3373 Y8.2861
N2225 X16.1381 Y8.3038
N2230 X15.3974 Y-0.0133
N2235 G2 X15.248 Y-0.15 I-0.1494 J0.0133
N2240 G1 X6
N2245 G2 X-0.15 Y6 J6.15
N2250 G3 X-0.175 Y6.025 I-0.025
N2255 G1 X-0.2
N2260 G18 G3 X-0.225 Z0.025 K0.025
N2265 G1 Z0.7
N2270 G0 X15.5486 Y-0.0072
N2275 G1 Z0.1644 F60
N2280 Z0.025
N2285 X15.5489 Z0.0211 F180
N2290 X15.5498 Y-0.0073 Z0.0173
N2295 X15.5513 Y-0.0074 Z0.0137
N2300 X15.5533 Y-0.0076 Z0.0103
N2305 X15.5559 Y-0.0078 Z0.0073
N2310 X15.5588 Y-0.0081 Z0.0048
N2315 X15.5622 Y-0.0084 Z0.0027
N2320 X15.5658 Y-0.0087 Z0.0012
N2325 X15.5696 Y-0.009 Z0.0003
N2330 X15.5735 Y-0.0094 Z0
N2335 X15.5984 Y-0.0116
N2340 G17 G3 X15.6255 Y0.0111 I0.0022 J0.0249
N2345 G1 X16.3644 Y8.3087
N2350 X16.1154 Y8.3309
N2355 X15.3725 Y-0.0111
N2360 G2 X15.248 Y-0.125 I-0.1245 J0.0111
N2365 G1 X6
N2370 G2 X-0.125 Y6 J6.125
N2375 G3 X-0.15 Y6.025 I-0.025
N2380 G1 X-0.175
N2385 G18 G3 X-0.2 Z0.025 K0.025
N2390 G1 Z2.2
N2395 G17
(When using Fusion for Personal Use, the feedrate of rapid)
(moves is reduced to match the feedrate of cutting moves,)
(which can increase machining time. Unrestricted rapid moves)
(are available with a Fusion Subscription.)

(2D Contour3 2)
N2400 G0 X0.0286 Y19.2101
N2405 G1 Z2.2 F180
N2410 Z0.7
N2415 Z0.5394 F60
N2420 Z0.4
N2425 Y19.2098 Z0.3961 F180
N2430 X0.0284 Y19.2089 Z0.3923
N2435 X0.028 Y19.2075 Z0.3887
N2440 X0.0275 Y19.2055 Z0.3853
N2445 X0.0269 Y19.203 Z0.3823
N2450 X0.0262 Y19.2001 Z0.3798
N2455 X0.0254 Y19.1968 Z0.3777
N2460 X0.0246 Y19.1933 Z0.3762
N2465 X0.0237 Y19.1896 Z0.3753
N2470 X0.0228 Y19.1858 Z0.375
N2475 X0.0169 Y19.1615
N2480 G3 X0.0353 Y19.1313 I0.0243 J-0.0059
N2485 G1 X8.0332 Y17.1951
N2490 X8.0803 Y17.3895
N2495 X-0.0353 Y19.3542
N2500 G2 X-0.15 Y19.5 I0.0353 J0.1458
N2505 G1 Y20
N2510 G2 X4 Y24.15 I4.15
N2515 G3 X4.025 Y24.175 J0.025
N2520 G1 Y24.2
N2525 G19 G3 Y24.225 Z0.4 K0.025
N2530 G1 Z0.7
N2535 G0 X0.0228 Y19.1858
N2540 G1 Z0.5394 F60
N2545 Z0.4
N2550 X0.0227 Y19.1855 Z0.3961 F180
N2555 X0.0225 Y19.1846 Z0.3923
N2560 X0.0221 Y19.1832 Z0.3887
N2565 X0.0216 Y19.1812 Z0.3853
N2570 X0.021 Y19.1787 Z0.3823
N2575 X0.0203 Y19.1758 Z0.3798
N2580 X0.0195 Y19.1726 Z0.3777
N2585 X0.0187 Y19.169 Z0.3762
N2590 X0.0178 Y19.1653 Z0.3753
N2595 X0.0169 Y19.1615 Z0.375
N2600 X0.011 Y19.1372
N2605 G17 G3 X0.0294 Y19.107 I0.0243 J-0.0059
N2610 G1 X8.0516 Y17.165
N2615 X8.1104 Y17.4079
N2620 X-0.0294 Y19.3785
N2625 G2 X-0.125 Y19.5 I0.0294 J0.1215
N2630 G1 Y20
N2635 G2 X4 Y24.125 I4.125
N2640 G3 X4.025 Y24.15 J0.025
N2645 G1 Y24.175
N2650 G19 G3 Y24.2 Z0.4 K0.025
N2655 G1 Z0.7
N2660 G0 X0.0286 Y19.2101
N2665 G1 Z0.4144 F60
N2670 Z0.275
N2675 Y19.2098 Z0.2711 F180
N2680 X0.0284 Y19.2089 Z0.2673
N2685 X0.028 Y19.2075 Z0.2637
N2690 X0.0275 Y19.2055 Z0.2603
N2695 X0.0269 Y19.203 Z0.2573
N2700 X0.0262 Y19.2001 Z0.2548
N2705 X0.0254 Y19.1968 Z0.2527
N2710 X0.0246 Y19.1933 Z0.2512
N2715 X0.0237 Y19.1896 Z0.2503
N2720 X0.0228 Y19.1858 Z0.25
N2725 X0.0169 Y19.1615
N2730 G17 G3 X0.0353 Y19.1313 I0.0243 J-0.0059
N2735 G1 X8.0332 Y17.1951
N2740 X8.0803 Y17.3895
N2745 X-0.0353 Y19.3542
N2750 G2 X-0.15 Y19.5 I0.0353 J0.1458
N2755 G1 Y20
N2760 G2 X4 Y24.15 I4.15
N2765 G3 X4.025 Y24.175 J0.025
N2770 G1 Y24.2
N2775 G19 G3 Y24.225 Z0.275 K0.025
N2780 G1 Z0.7
N2785 G0 X0.0228 Y19.1858
N2790 G1 Z0.4144 F60
N2795 Z0.275
N2800 X0.0227 Y19.1855 Z0.2711 F180
N2805 X0.0225 Y19.1846 Z0.2673
N2810 X0.0221 Y19.1832 Z0.2637
N2815 X0.0216 Y19.1812 Z0.2603
N2820 X0.021 Y19.1787 Z0.2573
N2825 X0.0203 Y19.1758 Z0.2548
N2830 X0.0195 Y19.1726 Z0.2527
N2835 X0.0187 Y19.169 Z0.2512
N2840 X0.0178 Y19.1653 Z0.2503
N2845 X0.0169 Y19.1615 Z0.25
N2850 X0.011 Y19.1372
N2855 G17 G3 X0.0294 Y19.107 I0.0243 J-0.0059
N2860 G1 X8.0516 Y17.165
N2865 X8.1104 Y17.4079
N2870 X-0.0294 Y19.3785
N2875 G2 X-0.125 Y19.5 I0.0294 J0.1215
N2880 G1 Y20
N2885 G2 X4 Y24.125 I4.125
N2890 G3 X4.025 Y24.15 J0.025
N2895 G1 Y24.175
N2900 G19 G3 Y24.2 Z0.275 K0.025
N2905 G1 Z0.7
N2910 G0 X0.0286 Y19.2101
N2915 G1 Z0.2894 F60
N2920 Z0.15
N2925 Y19.2098 Z0.1461 F180
N2930 X0.0284 Y19.2089 Z0.1423
N2935 X0.028 Y19.2075 Z0.1387
N2940 X0.0275 Y19.2055 Z0.1353
N2945 X0.0269 Y19.203 Z0.1323
N2950 X0.0262 Y19.2001 Z0.1298
N2955 X0.0254 Y19.1968 Z0.1277
N2960 X0.0246 Y19.1933 Z0.1262
N2965 X0.0237 Y19.1896 Z0.1253
N2970 X0.0228 Y19.1858 Z0.125
N2975 X0.0169 Y19.1615
N2980 G17 G3 X0.0353 Y19.1313 I0.0243 J-0.0059
N2985 G1 X8.0332 Y17.1951
N2990 X8.0803 Y17.3895
N2995 X-0.0353 Y19.3542
N3000 G2 X-0.15 Y19.5 I0.0353 J0.1458
N3005 G1 Y20
N3010 G2 X4 Y24.15 I4.15
N3015 G3 X4.025 Y24.175 J0.025
N3020 G1 Y24.2
N3025 G19 G3 Y24.225 Z0.15 K0.025
N3030 G1 Z0.7
N3035 G0 X0.0228 Y19.1858
N3040 G1 Z0.2894 F60
N3045 Z0.15
N3050 X0.0227 Y19.1855 Z0.1461 F180
N3055 X0.0225 Y19.1846 Z0.1423
N3060 X0.0221 Y19.1832 Z0.1387
N3065 X0.0216 Y19.1812 Z0.1353
N3070 X0.021 Y19.1787 Z0.1323
N3075 X0.0203 Y19.1758 Z0.1298
N3080 X0.0195 Y19.1726 Z0.1277
N3085 X0.0187 Y19.169 Z0.1262
N3090 X0.0178 Y19.1653 Z0.1253
N3095 X0.0169 Y19.1615 Z0.125
N3100 X0.011 Y19.1372
N3105 G17 G3 X0.0294 Y19.107 I0.0243 J-0.0059
N3110 G1 X8.0516 Y17.165
N3115 X8.1104 Y17.4079
N3120 X-0.0294 Y19.3785
N3125 G2 X-0.125 Y19.5 I0.0294 J0.1215
N3130 G1 Y20
N3135 G2 X4 Y24.125 I4.125
N3140 G3 X4.025 Y24.15 J0.025
N3145 G1 Y24.175
N3150 G19 G3 Y24.2 Z0.15 K0.025
N3155 G1 Z0.7
N3160 G0 X0.0286 Y19.2101
N3165 G1 Z0.1644 F60
N3170 Z0.025
N3175 Y19.2098 Z0.0211 F180
N3180 X0.0284 Y19.2089 Z0.0173
N3185 X0.028 Y19.2075 Z0.0137
N3190 X0.0275 Y19.2055 Z0.0103
N3195 X0.0269 Y19.203 Z0.0073
N3200 X0.0262 Y19.2001 Z0.0048
N3205 X0.0254 Y19.1968 Z0.0027
N3210 X0.0246 Y19.1933 Z0.0012
N3215 X0.0237 Y19.1896 Z0.0003
N3220 X0.0228 Y19.1858 Z0
N3225 X0.0169 Y19.1615
N3230 G17 G3 X0.0353 Y19.1313 I0.0243 J-0.0059
N3235 G1 X8.0332 Y17.1951
N3240 X8.0803 Y17.3895
N3245 X-0.0353 Y19.3542
N3250 G2 X-0.15 Y19.5 I0.0353 J0.1458
N3255 G1 Y20
N3260 G2 X4 Y24.15 I4.15
N3265 G3 X4.025 Y24.175 J0.025
N3270 G1 Y24.2
N3275 G19 G3 Y24.225 Z0.025 K0.025
N3280 G1 Z0.7
N3285 G0 X0.0228 Y19.1858
N3290 G1 Z0.1644 F60
N3295 Z0.025
N3300 X0.0227 Y19.1855 Z0.0211 F180
N3305 X0.0225 Y19.1846 Z0.0173
N3310 X0.0221 Y19.1832 Z0.0137
N3315 X0.0216 Y19.1812 Z0.0103
N3320 X0.021 Y19.1787 Z0.0073
N3325 X0.0203 Y19.1758 Z0.0048
N3330 X0.0195 Y19.1726 Z0.0027
N3335 X0.0187 Y19.169 Z0.0012
N3340 X0.0178 Y19.1653 Z0.0003
N3345 X0.0169 Y19.1615 Z0
N3350 X0.011 Y19.1372
N3355 G17 G3 X0.0294 Y19.107 I0.0243 J-0.0059
N3360 G1 X8.0516 Y17.165
N3365 X8.1104 Y17.4079
N3370 X-0.0294 Y19.3785
N3375 G2 X-0.125 Y19.5 I0.0294 J0.1215
N3380 G1 Y20
N3385 G2 X4 Y24.125 I4.125
N3390 G3 X4.025 Y24.15 J0.025
N3395 G1 Y24.175
N3400 G19 G3 Y24.2 Z0.025 K0.025
N3405 G1 Z2.2
N3410 G17
N3415 G28 G91 Z0
N3420 G90
N3425 G28 G91 X0 Y0
N3430 G90
N3435 M30
%
